polaris-icons/icons/FacebookMinor.svg

<svg xmlns="http://www.w3.org/2000/svg" viewBox="0 0 20 20"><path fill="#5C5F62" d="M10 3C6.13401 3 3 6.15425 3 10.0452C3 13.5509 5.54409 16.4586 8.87545 17V12.8129H7.00045V10.6272H8.87545V8.9613C8.87545 7.06619 9.97792 6.01939 11.6647 6.01939C12.4727 6.01939 13.3178 6.16707 13.3178 6.16707V8.02792H12.3866C11.4692 8.02792 11.1831 8.6108 11.1831 9.20878V10.6272H13.2313L12.9039 12.8129H11.1831V16.9902C14.4857 16.4244 17 13.5303 17 10.0452C17 6.15425 13.866 3 10 3Z"/></svg>

<svg xmlns="http://www.w3.org/2000/svg" viewBox="0 0 20 20"><path d="M10 3c-3.866 0-7 3.154-7 7.045 0 3.506 2.544 6.414 5.875 6.955v-4.187h-1.875v-2.186h1.875v-1.666c0-1.895 1.103-2.942 2.79-2.942.808 0 1.653.148 1.653.148v1.86h-.931c-.918 0-1.204.584-1.204 1.182v1.418h2.048l-.327 2.186h-1.72v4.177c3.302-.566 5.816-3.46 5.816-6.945 0-3.89-3.134-7.045-7-7.045Z"/></svg>
